X: 362
M: 2/2
L: 1/8
K: G
!segno!GFGA |\
g2fe dcBA | B2G2 d2d2 |
g2fe dcBA | G4 d2d2 |\
g2fe dcBA | B2G2 d2d2 | g2fe dcBA | G4 B2B2 |\
e2d2 c2B2 | A2G2 B2B2 | e2d2 c2B2 | A4 !segno!y|]

